UI/Discovery-Sharing/SVG/distribute_outline_24px.svg

<svg width="24" height="24" viewBox="0 0 24 24" fill="none" xmlns="http://www.w3.org/2000/svg">
<path fill-rule="evenodd" clip-rule="evenodd" d="M16 6L12 10L8 6L9.24 4.76L11 6.5V2H13V6.5L14.76 4.76L16 6ZM6 18H2V22H6V18ZM14 18H10V22H14V18ZM22 18H18V22H22V18ZM20 12H4C3.46957 12 2.96086 12.2107 2.58579 12.5858C2.21071 12.9609 2 13.4696 2 14V16H4V14H11V16H13V14H20V16H22V14C22 13.4696 21.7893 12.9609 21.4142 12.5858C21.0391 12.2107 20.5304 12 20 12Z" fill="#0F1621"/>
</svg>

<svg xmlns="http://www.w3.org/2000/svg" width="24" height="24" viewBox="0 0 24 24"><rect width="24" height="24" transform="translate(0 24) rotate(-90)" style="fill:none"/><path d="M16,6l-4,4L8,6,9.24,4.76,11,6.5V2h2V6.5l1.76-1.74ZM6,18H2v4H6Zm8,0H10v4h4Zm8,0H18v4h4Zm-2-6H4a2,2,0,0,0-2,2v2H4V14h7v2h2V14h7v2h2V14A2,2,0,0,0,20,12Z" style="fill-rule:evenodd"/></svg>
